;FLAVOR:RepRap
;TIME:7723
;Filament used: 12.9582m
;Layer height: 0.3
;Generated with Cura_SteamEngine 2.5.0
M190 S60
M104 S200
M109 S200
G21 ;metric values
G90 ;absolute positioning
M82 ;set extruder to absolute mode
M107 ;start with the fan off
G28 X0 Y0 ;move X/Y to min endstops
G28 Z0 ;move Z to min endstops
G1 Z15.0 F9000 ;move the platform down 15mm
G92 E0 ;zero the extruded length
G1 F200 E3 ;extrude 3mm of feed stock
G92 E0 ;zero the extruded length again
G1 F9000
;Put printing message on LCD screen
M117 Printing...
;LAYER_COUNT:7
;LAYER:-6
M107
G0 F3600 X12.023 Y13.118 Z0.36
G1 F1350 X13.118 Y12.023 E0.18542
G1 X13.343 Y11.82 E0.2217
G1 X14.545 Y10.848 E0.4068
G1 X14.79 Y10.669 E0.44313
G1 X16.054 Y9.848 E0.6236
G1 X16.344 Y9.681 E0.66367
G1 X17.704 Y8.988 E0.84643
G1 X17.977 Y8.867 E0.88219
G1 X19.417 Y8.314 E1.06688
G1 X19.715 Y8.216 E1.10445
G1 X21.188 Y7.822 E1.28702
G1 X21.489 Y7.758 E1.32386
G1 X23.023 Y7.516 E1.50981
G1 X23.298 Y7.487 E1.54292
G1 X24.855 Y7.404 E1.72962
G1 X24.855 Y7.405 E1.72974
G1 X25.026 Y7.4 E1.75022
G1 X94.974 Y7.4 E10.12555
G1 X95.145 Y7.405 E10.14603
G1 X95.145 Y7.404 E10.14615
G1 X96.702 Y7.487 E10.33284
G1 X96.977 Y7.516 E10.36595
G1 X98.511 Y7.758 E10.5519
G1 X98.812 Y7.822 E10.58875
G1 X100.285 Y8.216 E10.77132
G1 X100.583 Y8.314 E10.80888
G1 X102.023 Y8.867 E10.99358
G1 X102.296 Y8.988 E11.02933
G1 X103.656 Y9.681 E11.2121
G1 X103.946 Y9.848 E11.25217
G1 X105.21 Y10.669 E11.43264
G1 X105.455 Y10.848 E11.46897
G1 X106.657 Y11.82 E11.65406
G1 X106.882 Y12.023 E11.69035
G1 X107.977 Y13.118 E11.87577
G1 X108.176 Y13.338 E11.91129
G1 X109.152 Y14.545 E12.09714
G1 X109.331 Y14.79 E12.13348
G1 X110.152 Y16.054 E12.31395
G1 X110.319 Y16.344 E12.35402
G1 X111.012 Y17.704 E12.53678
G1 X111.133 Y17.977 E12.57253
G1 X111.686 Y19.417 E12.75723
G1 X111.784 Y19.715 E12.79479
G1 X112.177 Y21.182 E12.97664
G1 X112.241 Y21.48 E13.01314
G1 X112.484 Y23.021 E13.19993
G1 X112.513 Y23.29 E13.23232
G1 X112.595 Y24.84 E13.41818
G1 X112.6 Y25.014 E13.43902
G1 X112.6 Y94.976 E21.81602
G1 X112.596 Y95.135 E21.83507
G1 X112.513 Y96.702 E22.02296
G1 X112.484 Y96.977 E22.05607
G1 X112.242 Y98.511 E22.24201
G1 X112.178 Y98.812 E22.27886
G1 X111.784 Y100.285 E22.46143
G1 X111.69 Y100.572 E22.49759
G1 X111.133 Y102.023 E22.68369
G1 X111.013 Y102.293 E22.71907
G1 X110.319 Y103.656 E22.90221
G1 X110.152 Y103.946 E22.94228
G1 X109.331 Y105.21 E23.12275
G1 X109.152 Y105.455 E23.15908
G1 X108.18 Y106.657 E23.34417
G1 X107.977 Y106.882 E23.38046
G1 X106.887 Y107.972 E23.56503
G1 X106.657 Y108.18 E23.60216
G1 X105.459 Y109.149 E23.78665
G1 X105.214 Y109.328 E23.82299
G1 X103.946 Y110.152 E24.00405
G1 X103.656 Y110.319 E24.04412
G1 X102.296 Y111.012 E24.22689
G1 X102.023 Y111.133 E24.26264
G1 X100.583 Y111.686 E24.44734
G1 X100.287 Y111.783 E24.48463
G1 X98.812 Y112.178 E24.66747
G1 X98.511 Y112.242 E24.70432
G1 X96.977 Y112.484 E24.89026
G1 X96.702 Y112.513 E24.92337
G1 X95.145 Y112.596 E25.11007
G1 X95.145 Y112.595 E25.11019
G1 X94.974 Y112.6 E25.13067
G1 X25.026 Y112.6 E33.506
G1 X24.855 Y112.595 E33.52648
G1 X24.855 Y112.596 E33.5266
G1 X23.298 Y112.513 E33.7133
G1 X23.023 Y112.484 E33.74641
G1 X21.489 Y112.242 E33.93235
G1 X21.188 Y112.178 E33.9692
G1 X19.713 Y111.783 E34.15204
G1 X19.417 Y111.686 E34.18933
G1 X17.977 Y111.133 E34.37403
G1 X17.704 Y111.012 E34.40978
G1 X16.344 Y110.319 E34.59255
G1 X16.054 Y110.152 E34.63262
G1 X14.786 Y109.328 E34.81368
G1 X14.541 Y109.149 E34.85002
G1 X13.343 Y108.18 E35.03451
G1 X13.113 Y107.972 E35.07164
G1 X12.023 Y106.882 E35.25621
G1 X11.82 Y106.657 E35.2925
G1 X10.848 Y105.455 E35.47759
G1 X10.669 Y105.21 E35.51392
G1 X9.848 Y103.946 E35.69439
G1 X9.681 Y103.656 E35.73446
G1 X8.987 Y102.293 E35.9176
G1 X8.867 Y102.023 E35.95298
G1 X8.31 Y100.572 E36.13908
G1 X8.216 Y100.285 E36.17524
G1 X7.822 Y98.812 E36.35781
G1 X7.758 Y98.511 E36.39466
G1 X7.516 Y96.977 E36.5806
G1 X7.487 Y96.702 E36.61371
G1 X7.404 Y95.135 E36.8016
G1 X7.4 Y94.986 E36.81945
G1 X7.4 Y25.024 E45.19645
G1 X7.404 Y24.865 E45.2155
G1 X7.487 Y23.29 E45.40435
G1 X7.516 Y23.021 E45.43674
G1 X7.759 Y21.48 E45.62353
G1 X7.823 Y21.182 E45.66003
G1 X8.216 Y19.715 E45.84188
G1 X8.314 Y19.417 E45.87944
G1 X8.867 Y17.977 E46.06414
G1 X8.988 Y17.704 E46.09989
G1 X9.681 Y16.344 E46.28265
G1 X9.848 Y16.054 E46.32272
G1 X10.669 Y14.79 E46.50319
G1 X10.848 Y14.545 E46.53953
G1 X11.824 Y13.338 E46.72538
G1 X12.023 Y13.118 E46.7609
G0 F3600 X12.8 Y12.341
G1 F1350 X12.8 Y107.659 E58.17395
G0 F3600 X14.4 Y109.034
G1 F1350 X14.4 Y10.965 E69.91638
G0 F3600 X16 Y9.883
G1 F1350 X16 Y110.116 E81.91793
G0 F3600 X17.6 Y110.959
G1 F1350 X17.6 Y9.04 E94.12135
G0 F3600 X19.2 Y8.397
G1 F1350 X19.2 Y111.602 E106.47876
G0 F3600 X20.8 Y112.074
G1 F1350 X20.8 Y7.925 E118.94919
G0 F3600 X22.4 Y7.614
G1 F1350 X22.4 Y112.385 E131.4941
G0 F3600 X24 Y112.55
G1 F1350 X24 Y7.449 E144.07853
G0 F3600 X25.6 Y7.4
G1 F1350 X25.6 Y112.6 E156.67481
G0 F3600 X27.2 Y112.6
G1 F1350 X27.2 Y7.4 E169.27109
G0 F3600 X28.8 Y7.4
G1 F1350 X28.8 Y112.6 E181.86736
G0 F3600 X30.4 Y112.6
G1 F1350 X30.4 Y7.4 E194.46364
G0 F3600 X32 Y7.4
G1 F1350 X32 Y112.6 E207.05992
G0 F3600 X33.6 Y112.6
G1 F1350 X33.6 Y7.4 E219.6562
G0 F3600 X35.2 Y7.4
G1 F1350 X35.2 Y112.6 E232.25248
G0 F3600 X36.8 Y112.6
G1 F1350 X36.8 Y7.4 E244.84876
G0 F3600 X38.4 Y7.4
G1 F1350 X38.4 Y112.6 E257.44503
G0 F3600 X40 Y112.6
G1 F1350 X40 Y7.4 E270.04131
G0 F3600 X41.6 Y7.4
G1 F1350 X41.6 Y112.6 E282.63759
G0 F3600 X43.2 Y112.6
G1 F1350 X43.2 Y7.4 E295.23387
G0 F3600 X44.8 Y7.4
G1 F1350 X44.8 Y112.6 E307.83015
G0 F3600 X46.4 Y112.6
G1 F1350 X46.4 Y7.4 E320.42643
G0 F3600 X48 Y7.4
G1 F1350 X48 Y112.6 E333.0227
G0 F3600 X49.6 Y112.6
G1 F1350 X49.6 Y7.4 E345.61898
G0 F3600 X51.2 Y7.4
G1 F1350 X51.2 Y112.6 E358.21526
G0 F3600 X52.8 Y112.6
G1 F1350 X52.8 Y7.4 E370.81154
G0 F3600 X54.4 Y7.4
G1 F1350 X54.4 Y112.6 E383.40782
G0 F3600 X56 Y112.6
G1 F1350 X56 Y7.4 E396.0041
G0 F3600 X57.6 Y7.4
G1 F1350 X57.6 Y112.6 E408.60037
G0 F3600 X59.2 Y112.6
G1 F1350 X59.2 Y7.4 E421.19665
G0 F3600 X60.8 Y7.4
G1 F1350 X60.8 Y112.6 E433.79293
G0 F3600 X62.4 Y112.6
G1 F1350 X62.4 Y7.4 E446.38921
G0 F3600 X64 Y7.4
G1 F1350 X64 Y112.6 E458.98549
G0 F3600 X65.6 Y112.6
G1 F1350 X65.6 Y7.4 E471.58177
G0 F3600 X67.2 Y7.4
G1 F1350 X67.2 Y112.6 E484.17804
G0 F3600 X68.8 Y112.6
G1 F1350 X68.8 Y7.4 E496.77432
G0 F3600 X70.4 Y7.4
G1 F1350 X70.4 Y112.6 E509.3706
G0 F3600 X72 Y112.6
G1 F1350 X72 Y7.4 E521.96688
G0 F3600 X73.6 Y7.4
G1 F1350 X73.6 Y112.6 E534.56316
G0 F3600 X75.2 Y112.6
G1 F1350 X75.2 Y7.4 E547.15944
G0 F3600 X76.8 Y7.4
G1 F1350 X76.8 Y112.6 E559.75571
G0 F3600 X78.4 Y112.6
G1 F1350 X78.4 Y7.4 E572.35199
G0 F3600 X80 Y7.4
G1 F1350 X80 Y112.6 E584.94827
G0 F3600 X81.6 Y112.6
G1 F1350 X81.6 Y7.4 E597.54455
G0 F3600 X83.2 Y7.4
G1 F1350 X83.2 Y112.6 E610.14083
G0 F3600 X84.8 Y112.6
G1 F1350 X84.8 Y7.4 E622.73711
G0 F3600 X86.4 Y7.4
G1 F1350 X86.4 Y112.6 E635.33338
G0 F3600 X88 Y112.6
G1 F1350 X88 Y7.4 E647.92966
G0 F3600 X89.6 Y7.4
G1 F1350 X89.6 Y112.6 E660.52594
G0 F3600 X91.2 Y112.6
G1 F1350 X91.2 Y7.4 E673.12222
G0 F3600 X92.8 Y7.4
G1 F1350 X92.8 Y112.6 E685.7185
G0 F3600 X94.4 Y112.6
G1 F1350 X94.4 Y7.4 E698.31478
G0 F3600 X96 Y7.45
G1 F1350 X96 Y112.551 E710.8992
G0 F3600 X97.6 Y112.386
G1 F1350 X97.6 Y7.615 E723.44411
G0 F3600 X99.2 Y7.926
G1 F1350 X99.2 Y112.075 E735.91455
G0 F3600 X100.8 Y111.603
G1 F1350 X100.8 Y8.398 E748.27195
G0 F3600 X102.4 Y9.041
G1 F1350 X102.4 Y110.96 E760.47537
G0 F3600 X104 Y110.117
G1 F1350 X104 Y9.884 E772.47692
G0 F3600 X105.6 Y10.966
G1 F1350 X105.6 Y109.035 E784.21936
G0 F3600 X107.2 Y107.659
G1 F1350 X107.2 Y12.341 E795.6324
G0 F3600 X108.8 Y14.11
G1 F1350 X108.8 Y105.891 E806.62194
G0 F3600 X110.4 Y103.497
G1 F1350 X110.4 Y16.503 E817.03829
G0 F3600 X112 Y20.522
G1 F1350 X112 Y99.478 E826.49221
G0 F3600 X11.2 Y105.89
G1 F1350 X11.2 Y14.109 E837.48174
G0 F3600 X9.6 Y16.502
G1 F1350 X9.6 Y103.496 E847.8981
G0 F3600 X8 Y99.477
G1 F1350 X8 Y20.521 E857.35201
G0 F3600 X12.57 Y12.57
;TIME_ELAPSED:323.021718
M107
M104 S0 ;extruder heater off
M140 S0 ;heated bed heater off (if you have it)
G91 ;relative positioning
G1 E-1 F300  ;retract the filament a bit before lifting the nozzle, to release some of the pressure
G1 Z+10 E-5 F9000 ;move Z up a bit and retract filament even more
G28 X ;move X to origin, so the head is out of the way
G90 ;absolute positioning
G1 Y119; Extend bed for removal
M84 ;steppers off
G90 ;absolute positioning
M104 S0
;End of Gcode
;SETTING_3 {"global_quality": "[general]\\nversion = 2\\nname = FidgetSpinner\\n
;SETTING_3 definition = m200\\n\\n[metadata]\\nquality_type = normal\\ntype = qu
;SETTING_3 ality_changes\\n\\n[values]\\nadhesion_type = raft\\nbrim_width = 5\\
;SETTING_3 ninfill_sparse_density = 30\\nlayer_height = 0.3\\nlayer_height_0 = 0
;SETTING_3 .3\\nraft_margin = 3\\nskirt_line_count = 3\\nsupport_enable = False\
;SETTING_3 \ntop_bottom_thickness = 0.8\\nwall_thickness = 0.8\\n\\n"}
